X: 105202
T: Mrs Mc LEOD
Q:"Reel."
R: Reel.
%R:reel
B: James Kerr "Merry Melodies" v.1 p.5 s.2 #2
Z: 2017 John Chambers <jc:trillian.mit.edu>
M: C
L: 1/8
K: A
[|\
A2a2 fefa | c2cB c2cB |\
A2a2 fefa | B2BA (Bd)cB |\
A2a2 fefa | c2cB c2ce |\
f2fg (fe)fg | afec BdcB |]
ABcd eAcA | c2cB c2cB |\
ABcd eAcA | B2BA ( Bd)cB |\
ABcd eAcA | c2cB c2ce |\
f2fg (fe)fg | afec BdcB |]

%%sep 1 1 500
%%sep 1 1 500

